X:1
T:Holiness, 65.65 D
T:Holiness, 65.65 D
T:George Coles Stebbins, 1890
T:Public Domain Courtesy of the Cyber Hymnal™
C:George Coles Stebbins, 1890
Z:Public Domain
Z:Courtesy of the Cyber Hymnal™
%%score ( 1 2 ) 3
L:1/8
Q:1/4=108
M:6/8
K:F
V:1 treble 
V:2 treble 
V:3 bass 
V:1
 [FA]3 [FA][FG][FA] | [FB]3 [FA]3 | F3 [CG][CF][CE] | [CF]6 | [FA]3 [FA][FG][FA] | [FB]3 [FA]3 | %6
 [EG]3 [DG][EG][FG] | [EG]6 | [GB]3 [GB][FA][EG] | [FA]3 [Fc]3 | [EB]3 [EB][FA][EG] | [FA]6 | %12
 [Fc]3 [Fc][EB][FA] | [Fd]3 [FB]3 | [FA]3 [CG][CF][CE] | [CF]6 |] %16
V:2
 x6 | x6 | F3 x3 | x6 | x6 | x6 | x6 | x6 | x6 | x6 | x6 | x6 | x6 | x6 | x6 | x6 |] %16
V:3
 [F,C]3 [F,C][F,B,][F,C] | [F,D]3 [F,C]3 | [C,A,]3 [C,B,][C,A,][C,G,] | [F,A,]6 | %4
 [F,C]3 [F,C][F,B,][F,C] | [F,D]3 [F,C]3 | [G,C]3 [G,=B,][G,C][G,D] | [C,C]6 | %8
 [C,C]3 [C,C][C,C][C,C] | [F,C]3 [F,A,]3 | [C,G,]3 [C,G,][C,C][C,C] | [F,C]6 | %12
 [F,A,]3 [A,C][G,C][F,C] | B,3 [B,,D]3 | [C,C]3 [C,B,][C,A,][C,G,] | [F,A,]6 |] %16

